jrl-umi3218/mc_kinematics_calibration_controller/data/panda_tibia/back_left/hole_1.csv
#panda_joint1,panda_joint2,panda_joint3,panda_joint4,panda_joint5,panda_joint6,panda_joint7
1.542908122807218,1.020088540440738,0.904530701260818,-1.971542031923930,-1.254336939325132,2.069267452147275,0.916407633473476
1.752659895520461,0.927277586736177,0.767201646110468,-1.936839743410992,-1.255138218623620,1.968055164790393,1.286937173853318
1.752658195202028,0.927279257172032,0.767201464284930,-1.936841244007307,-1.255138220136988,1.968052922474013,1.286933511745599
1.906189092082064,0.901133816852904,0.670845651666241,-1.903384946826743,-1.281580195580195,1.858411667729079,1.615514587770303
1.666194744923658,0.942664183717025,0.841641091781728,-2.052230165246694,-1.625564202338534,1.981801132254640,1.728794405841140
1.362137370923109,1.187491455981157,1.071232600349142,-2.057848578704031,-1.643447768559588,1.983998867260085,1.728407355355444
1.643506087564536,1.007023220070168,0.899786660336611,-2.011314335739403,-1.590990980348146,1.861055360378269,1.691739105234543
1.536981436383251,1.095496810678850,0.962368107993507,-1.905211371009526,-1.234080318476737,1.904754986415620,1.191023064549581
1.462274718844109,1.214158907505504,0.986965346796471,-1.761940396660253,-0.813596177233590,1.862137473013663,1.150495405842860
1.276119123235089,1.381855865093700,1.095040499337177,-1.807599953567972,-0.813581581781308,1.942486123608147,1.237035275089211
1.097203710179580,1.547691040313411,1.200791635429666,-1.970023115103705,-1.277238777348203,2.046804915653335,0.932355093924492
1.322841518039453,1.189823716128810,1.033798102914241,-2.001518712457746,-1.258325635973640,2.157781205392953,1.026597734143337
1.696573279006389,0.889692307338380,0.752356552433549,-2.002876918945554,-1.254181074538989,2.164145476685501,1.190391039434405
2.132429109004776,0.759126677161769,0.398866068066212,-1.991287599671695,-1.266418301794123,2.113507130666044,1.565837938148036
2.062862383606916,0.977382267404914,0.574344351567720,-1.688339504601069,-1.042336267427416,1.611635935884419,1.565793036178985
1.662633648568829,1.205155707726053,0.910526799109944,-1.582235525817202,-0.809061055051620,1.580824190364944,1.564888182333799
1.452923606883016,1.403235705174898,1.092829498921835,-1.581698231051431,-0.798994057046043,1.584476327485508,1.615380548487107
1.322494394798028,1.416327628022281,1.086627243610850,-1.693069291332312,-0.668161157634523,1.802456785427199,1.785410555849472
1.376554894857346,1.128618463973366,0.927379238411163,-1.937236226433202,-0.682708573230171,2.237616165068415,1.621721796045701
1.954988645731921,0.786345358040285,0.473008997360865,-1.937449987595542,-0.709295462147566,2.230940813625585,1.624161172558864
2.120164967562023,0.758554758632392,0.392931319981291,-1.973773126000477,-1.141034520073069,2.143983906065813,1.770465004667922
1.635710547684227,0.899144768489035,0.810968730104289,-2.138554598962838,-1.887340504636294,2.124343924111790,1.767092878974877
1.857728801670827,0.978916480693188,0.628830611438082,-1.682095249694690,-0.604000657270352,1.811015548061395,1.173401047362413
2.101854590803151,0.902540227734816,0.411240751099168,-1.679225091214621,-0.604032370915015,1.806237989650832,1.181488625854254
2.330416197000423,0.875331965814557,0.204401086578824,-1.675805717785390,-0.604365401933591,1.800762776665634,1.181623362551133
2.366200675439416,0.877088725945068,0.245433621065658,-1.738877724934001,-0.939837919741868,1.756688862994022,1.581007830947638
1.511257313906101,1.168169701536543,0.977751933859106,-1.794880681800418,-0.969398778945208,1.841758352506830,1.630281996396096
1.314621813399750,1.382086964389734,1.126229784363195,-1.794420549459625,-0.969364081202510,1.841060017143685,1.636057824146416
1.154090249557244,1.452942589107313,1.158598288987812,-1.956723572793760,-1.180193801591794,2.072853487032575,1.610114056915043
1.179746603438729,1.390768826702185,1.163896857435131,-2.060448088604107,-1.610671484550807,2.044694170936146,1.610450168419399
1.250727196802173,1.374927432562176,1.181921925879361,-2.124637490272256,-1.952144744263755,1.808044393446710,1.610707404464483
1.350041328710995,1.418956940026299,1.182762639217515,-2.151164185883667,-2.196337519357602,1.475983663784133,1.608512951308692
1.525503461630721,1.436346103584557,1.189336130326254,-1.969766894179629,-1.991961904237668,1.214076855566766,1.637914502473341
1.698295667190301,1.481627075529935,1.186112940012459,-1.653617796323590,-1.690125763377280,1.011034013181838,1.637796103806968
1.716103711941786,1.534582703282060,1.217285909318087,-1.423901951154002,-1.396576805620242,0.997027057907253,1.620715461966393
1.571584632218206,1.667083408194630,1.360992168543631,-1.422299602908581,-1.324524381028282,1.048657509075271,1.617241464306911
1.467831693509169,1.729261908514458,1.394365205346492,-1.422202195149376,-1.173624011930070,1.156255919334422,1.621255576585831
1.368062964304382,1.746711679157458,1.343611792932475,-1.429928669891211,-0.921208088265525,1.321029453096775,1.653909440686083
1.141592424101981,1.751723788830876,1.307341928246588,-1.727091860403094,-1.015241792069541,1.694104433538657,1.438767651546592
1.036924844769009,1.601032803205872,1.191086857546340,-1.992906564103263,-1.247312733997901,2.134766203720948,1.222533386010339
1.224055310393074,1.310449895826710,1.105797738149666,-2.019445111663704,-1.364540192461262,2.136245790215279,1.239234737759310
1.596723875244886,0.948843909923627,0.842947868656694,-2.021254856578091,-1.362047795322206,2.143403546854269,1.390657739211333
2.037645613415092,0.769649572960418,0.481605533846638,-2.017600127303810,-1.364629563361409,2.126302307501857,1.501389178285996
2.381394425252028,0.780690655751896,0.229761294780394,-1.964844195859738,-1.363324830402930,1.951554247127639,1.599554299202957
2.279094348671729,0.885738603815434,0.289588032200061,-1.692545489711420,-0.759867423941693,1.768580342517958,1.399093274290959
2.228166956051718,0.898310191881703,0.292998307842957,-1.646152538490669,-0.561853188544512,1.769392984716259,1.218425001154116
2.042203708346405,0.937800597165760,0.414627742015489,-1.616738770422539,-0.368394294447369,1.773947828361634,1.106744463294744
1.893918640618845,0.991218262496747,0.500288618639847,-1.598736506864884,-0.183027846815398,1.773924032788113,1.107233459800482
1.780252398452868,1.043267572620459,0.539915191524233,-1.598777766093873,0.044106974297238,1.779696783998627,1.111389864446987
1.712290413482147,1.052216787572495,0.549134417065403,-1.648880599958855,0.222560267575609,1.834041782604323,1.366967956288123
1.872343665150174,0.854688523308653,0.537855927885624,-1.850142291504040,-0.499018297066291,2.113108547117975,1.403256021353847
2.097151224882996,0.798669368227813,0.414564918346572,-1.887347072763619,-0.910089059541623,2.054111532590623,1.798476291901345
1.964570011149373,0.813846418663592,0.590358482979891,-2.056855155744051,-1.638156792988380,1.982891347792413,1.956648134241501
1.515991485317113,1.000983761762467,0.907865393897943,-2.220841031860887,-2.265779829690853,1.966686273339369,1.748287793015027
1.101411823783004,1.484076048432735,1.172578510652508,-2.219959243180459,-2.267001060512330,1.952554087635958,1.063398935929793
1.554130160827385,1.033595214458934,0.941590441402636,-2.028798247872861,-1.575312668721136,1.952186681000908,1.244872926723964
2.016200177735213,0.895636627908339,0.538898416845424,-1.778139097918438,-0.917356486191352,1.840185718616266,1.265621416419744
2.518766915236635,0.868450189205638,-0.066098060546214,-1.653377524129136,-0.209333045350181,1.846157512254185,1.322516842535800
2.860250303680436,0.942976704714591,-0.560539593892450,-1.690830138306869,0.543990819586648,1.827359942979283,1.034820333172877
2.123284167551158,0.885549850656275,0.370118318626768,-1.688943387115195,-0.534010480115811,1.841594917673802,1.175151229552097
1.833853817964903,1.150835693242257,0.878534661077863,-1.688646781519839,-1.306321090252108,1.414475367453363,1.407678355226914
2.125527061640170,0.809851447705286,0.371085556710552,-1.835398403157552,-0.730761868984799,2.022954482131044,1.363869635909569
2.524037410370030,0.692569644939057,-0.054703389435484,-2.016510103513093,-0.734242315163215,2.402661730189108,1.374630374331076
